X:1
T:Come follow me, fair nymphs - Bateson
T:James Gibb editions
T:#
%%score { 1 | 2 } 3
L:1/8
Q:1/4=108
M:4/4
K:G
V:1 treble nm="Soprano I" snm="S"
V:2 treble 
V:3 treble-8 nm="Tenor" snm="T"
V:1
"^Come follow me, fair nymphs""^Thomas Bateson\n(1575-1630)"!mf! d4 GABc | dcAB cded | %2
w: Come fol- low me, fair|nymphs, come fol- low me, fair nymphs, come|
[M:4/4] Bcde fgaf | g4 z2 z d | edB^c d2 c2 | dA (d=c) (BA)Gd | (g=f) (ed) cc (fe) | %7
w: fol- low me, fair nymphs, come fol- low|me, come|fol- low me, fair nymphs, fair|nymphs, Hie! run * a\- * pace, I|run * a\- * pace, Hie! run *|
 (dc)Bd (cBA)c ||[M:3/4] B4 z2 |[M:3/4] z4!f! G2 | c4 B2 | A4 G2 | F3 G A2 | (B3 d ^c2) | d4 A2 | %15
w: a\- * pace, Hie! run * * a-|pace!|Di-|a- na|hunt- ing|ho- nour- eth|this * *|chase, Di-|
 d4 c2 | B4 (AB) | c3 A B2 | (A3 G A2) | B4 z2 ||[M:4/4] z2!pp! _B4 AG | =F3 E F2 G2 | A2 A4 G=F | %23
w: a- na|hunt- ing *|ho- nour- eth|this * *|chase.|Soft- ly for|fear her game we|rouse, soft- ly for|
[M:4/4] E4 =F4 | E6 E2 | ^F4 =f4- | f2 ed ^c2 d2 | (e2 d4) ^c2 | d2 e2 ^f3 g | a3 g f2 e2 | %30
w: fear her|game we|rouse, soft\-|* ly for fear her|game * we|rouse, Lodg'd in this|grove of briars and|
 f4!mf! d4 | z2 AB c2 A2 | z2 Bc d2 A2 | z2 c2 B4 | A2 c4 GA | B4 z2 d2- | d2 AB c4- | %37
w: boughs. Hark!|how the hunts- men,|how the hunts- men,|wind their|horns, See how the|deer, see|* how the deer,|
 c2 B2 A2 A2 | BG B2 z B d2 | z A e2 z!f! c =f2- | fd g4 ^f2 | e2 e2 f4- | f4!p! d2 dc | %43
w: * mount o'er the|thorns, The white, the white|the white, O ho!|* O ho! he|pinch'd her there.|* Go- wen ran|
 B2 A2 g2 g=f | e3 d c2 cB | A4!f! B2 c2- | c2 B2 A2 A2 | B!p!G B2 z B d2 | z A e2 z c =f2- | %49
w: well, oh! Go- wen ran|well, oh! Go- wen ran|well, but I,|* love, kill'd the|deer. The white, the white,|the white, O ho!|
 f!f!d g4 ^f2 | e2 e2 f4- | f4!p! d2 dc | B2 A2 g2 g=f | e3 d c2 cB | A4!f! B2 c2- | c2 B2 A2 A2 | %56
w: * O ho! he|pinch'd her there.|* Go- wen ran|well, oh! Go- wen ran|well, oh! Go- wen ran|well, but I,|* love, kill'd the|
 B4 d4 | e4 B4 | d4 A4- | A4 c4- | c4 B4 | A4 A4 | B16 |] %63
w: deer, but|I, love,|kill'd the|* deer,|* I|kill'd the|deer.|
V:2
 z4!mf! d4 | DEFG AGEF |[M:4/4] GABG AGFA | G=FDE ^FGAG | EF G2 (FG E2) | F2 D2 (G=FE)D | %6
w: Come|fol- low me, fair nymphs, come fol- low|me, fair nymphs, come fol- low me, fair|nymphs, come fol- low me, fair nymphs, come|fol- low me, fair * *|nymphs, Hie! run * * a-|
 C2 (cB) AG=FA | (BAG)=F E G2 ^F ||[M:3/4] G4!f! D2 |[M:3/4] E4 D2 | (E3 F) G2 | c3 A B2 | %12
w: pace, Hie! * run a- pace, Hie!|run * * a- pace, run a-|pace! Di-|a- na|hunt\- * ing|ho- nour- eth,|
 A3 G F2 | (G3 A G2) | F4 E2 | (D3 E) F2 | G4 F2 | E3 F G2 | (F3 E F2) | G4 z2 || %20
w: ho- nour- eth|this * *|chase, Di-|a\- * na|hunt- ing|ho- nour- eth|this * *|chase.|
[M:4/4] z2!pp! G4 =FE | D3 C D2 E2 | =F2 F4 ED |[M:4/4] (^C2 A,2) D4 | (D2 ^CB,) C4 | D4 z4 | %26
w: Soft- ly for|fear her game we|rouse, soft- ly for|fear * her|game * * we|rouse,|
 A6 G=F | E2 =F2 E3 E | ^F2 A2 A2 A2 | A2 d2 d2 ^c2 | d4 z4 | z4!mf! A4 | EF G2 D2 FG | AE A4 ^G2 | %34
w: soft- ly for|game we rouse, we|rouse, Lodg'd in this|grove of briars and|boughs.|Hark!|how the hunts- men, how the|hunts- men wind their|
 A4 z2 E2- | E2 B,C D4 | z2 =F4 CD | E^F G4 F2 | G2 z D D2 z D | F2 z A ^G2 z!f! A | %40
w: horns, See|* how the deer,|see how the|deer mount o'er the|thorns, The black, the|black, the black, O|
 A2 z B ^cc d2- | d2 ^c2 d4- | d4 z4 |!p! d2 dc B2 (AB) | c2 cB A3 G | F4!f! G2 A2- | AG G4 F2 | %47
w: ho! O ho! he pinch'd|* her there.||Go- wen ran well, oh! *|Go- wen, Go- wen ran|well, But I,|* love, kill'd the|
 G2 z!p! D D2 z D | F2 z A ^G2 z A | A2 z!f! B ^cc d2- | d2 ^c2 d4- | d4 z4 |!p! d2 dc B2 (AB) | %53
w: deer. The black, the|black, the black, O|ho! O ho! he pinch'd|* her there.||Go- wen ran well, oh! *|
 c2 cB A3 G | F4!f! G2 A2- | AG G4 F2 | G8 | z4 z2 G2 | B4 F4- | F2 G2 A4 | D4 G4- | G4 F4 | G16 |] %63
w: Go- wen, Go- wen ran|well, But I,|* love, kill'd the|deer,|but|I, love,|* but I,|love, kill'd|* the|deer.|
V:3
 z8 | z8 |[M:4/4][K:treble-8] z4!mf! d4 | GABc dcAB | cd (e2 d2) A2 | (dcB)A Gd (g=f | %6
w: ||Come|fol- low me fair nymphs, come fol- low|me, fair nymphs * Hie!|run * * a- pace, I run *|
 edcd (=fed)c | B2 B2 c2 d2 ||[M:3/4] G4!f! G2 |[M:3/4][K:treble-8] c4 B2 | A4 G2 | F3 F G2 | %12
w: * a- pace, Hie! run * * a-|pace, Hie! run a-|pace! Di-|a- na|hunt- ing|ho- nour- eth,|
 d3 e d2 | g3 f e2) | d4 c2 | B4 A2 | G4 d2 | c4 G2 | d2 D4 | G4 z2 ||[M:4/4]!pp! G4 G4 | %21
w: ho- nour- eth|this * *|chase, Di-|a- na|hunt- ing|ho- nour-|eth this|chase.|Soft- ly|
 z2 _B4 AG | =F3 E F2 G2 |[M:4/4][K:treble-8] A8- | A4 A4 | d4 d4- | d2 cB A2 B2 | c2 d2 A3 A | %28
w: soft- ly for|fear her game we|rouse,|* we|rouse, soft\-|* ly for fear her|game we rouse, we|
 d2 ^c2 d3 e | f3 g a2 A2 | d4 z4 |!mf! d4 z2 AB | c2 G2 Bc d2 | A4 e2 E2 | A4 c4 | z2 GA B4 | %36
w: rouse, Lodg'd in this|grove of briars and|boughs.|Hark! how the|hunts- men, how the hunts-|men wind their|horns, See|how the deer,|
 d4 z2 AB | c2 G2 d2 D2 | G2 z G B2 z B | d2 z A e2 z!f! d | =f2 z e a2 d2 | a2 A2 d4 | %42
w: see how the|deer mount o'er the|thorns, The black, the|black, the black, O|ho! O ho! he|pinch'd her there.|
!p! d2 dc B2 A2 | G2 FF G2 d2 | c4 c2 c2 | d4!f! G2 c2- | c2 G2 d2 D2 | G2 z!p! G B2 z B | %48
w: Go- wen ran well, oh!|Go- wen ran well, oh!|Go- wen ran|well, But I,|* love, kill'd the|deer. The black, the|
 d2 z A e2 z d | =f2 z!f! e a2 d2 | a2 A2 d4 |!p! d2 dc B2 A2 | G2 FF G2 d2 | c4 c2 c2 | %54
w: black, the black, O|ho! O ho! he|pinch'd her there.|Go- wen ran well, oh!|Go- wen ran well, oh!|Go- wen ran|
 d4!f! G2 c2- | c2 G2 d2 D2 | G8 | z2 c2 e4 | B4 d4 | A4 z2 F2 | G6 G2 | d6 d2 | G16 |] %63
w: well, But I,|* love, kill'd the|deer,|but I,|lover, I,|love, but|I, love,|kill'd the|deer.|

